blockchains/ethereum/assets/0x2ba592F78dB6436527729929AAf6c908497cB200/logo.svg

<svg fill="none" height="250" viewBox="0 0 250 250" width="250" xmlns="http://www.w3.org/2000/svg" xmlns:xlink="http://www.w3.org/1999/xlink"><clipPath id="a"><path d="m0 0h250v250h-250z"/></clipPath><g clip-path="url(#a)"><path d="m135.067 130.9 43.833 43.833c.838.843 1.487 1.854 1.904 2.968.416 1.113.591 2.302.512 3.487-.079 1.186-.409 2.342-.97 3.39-.56 1.048-1.337 1.964-2.279 2.689-11.698 9.187-25.747 14.895-40.538 16.47-14.791 1.574-29.726-1.049-43.0962-7.568-13.3698-6.52-24.6333-16.673-32.5009-29.296-7.8676-12.624-12.0213-27.208-11.9854-42.082.0359-14.875 4.2599-29.4389 12.1883-42.0244 7.9285-12.5855 19.2409-22.6839 32.6419-29.1389 13.4013-6.4549 28.3493-9.0056 43.1323-7.3598 14.783 1.6457 28.804 7.4213 40.458 16.6654.897.7372 1.63 1.6552 2.149 2.6944.519 1.0391.814 2.176.864 3.3365.05 1.1606-.145 2.3187-.572 3.3989s-1.077 2.0582-1.908 2.8702l-43.867 43.8667c-.771.773-1.382 1.691-1.8 2.7-.424 1.06-.639 2.192-.633 3.333-.013 1.146.214 2.281.667 3.334.409 1.013 1.022 1.932 1.8 2.7zm-10.067-130.9c-24.723 0-48.8901 7.33112-69.4462 21.0663-20.5562 13.7352-36.5777 33.2575-46.03869 56.0983-9.4609492 22.8404-11.93637 47.9744-7.11321 72.2214 4.82315 24.248 16.7282 46.521 34.2098 64.002 17.4816 17.482 39.7544 29.387 64.0023 34.21 24.247 4.823 49.381 2.348 72.221-7.113 22.841-9.461 42.364-25.483 56.099-46.039s21.066-44.723 21.066-69.446c0-33.1521-13.17-64.9463-36.612-88.3883-23.442-23.4421-55.236-36.6117-88.388-36.6117z" fill="#69e2dc"/></g></svg>

<svg width="250" height="250" viewBox="0 0 250 250" fill="none" xmlns="http://www.w3.org/2000/svg">
<g clip-path="url(#clip0_36_6085)">
<path d="M135.067 130.9L178.9 174.733C179.738 175.576 180.387 176.587 180.804 177.701C181.22 178.814 181.395 180.003 181.316 181.188C181.237 182.374 180.907 183.53 180.346 184.578C179.786 185.626 179.009 186.542 178.067 187.267C166.369 196.454 152.32 202.162 137.529 203.737C122.738 205.311 107.803 202.688 94.4328 196.169C81.063 189.649 69.7995 179.496 61.9319 166.873C54.0643 154.249 49.9106 139.665 49.9465 124.791C49.9824 109.916 54.2064 95.3521 62.1348 82.7666C70.0633 70.1811 81.3757 60.0827 94.7767 53.6277C108.178 47.1728 123.126 44.6221 137.909 46.2679C152.692 47.9136 166.713 53.6892 178.367 62.9333C179.264 63.6705 179.997 64.5885 180.516 65.6277C181.035 66.6668 181.33 67.8037 181.38 68.9642C181.43 70.1248 181.235 71.2829 180.808 72.3631C180.381 73.4433 179.731 74.4213 178.9 75.2333L135.033 119.1C134.262 119.873 133.651 120.791 133.233 121.8C132.809 122.86 132.594 123.992 132.6 125.133C132.587 126.279 132.814 127.414 133.267 128.467C133.676 129.48 134.289 130.399 135.067 131.167V130.9ZM125 0C100.277 0 76.1099 7.33112 55.5538 21.0663C34.9976 34.8015 18.9761 54.3238 9.51511 77.1646C0.0541608 100.005 -2.42126 125.139 2.4019 149.386C7.22505 173.634 19.1301 195.907 36.6117 213.388C54.0933 230.87 76.3661 242.775 100.614 247.598C124.861 252.421 149.995 249.946 172.835 240.485C195.676 231.024 215.199 215.002 228.934 194.446C242.669 173.89 250 149.723 250 125C250 91.8479 236.83 60.0537 213.388 36.6117C189.946 13.1696 158.152 0 125 0V0Z" fill="#69E2DC"/>
</g>
<defs>
<clipPath id="clip0_36_6085">
<rect width="250" height="250" fill="white"/>
</clipPath>
</defs>
</svg>
